X: 35535
T: Runaway, The
R: jig
M: 6/8
K: Dmajor
|:Az~F3A|~d3 cBA|B2~G3A|B2 A Bcd|
A2~F3A|dz d cBA|Bcd ecA|1 ded d2B:|2 ded dz A||
|:~d2e ~f2d|~g2e ~f2d|ecA AcA|ecA AcA|
dz e ~f2d|gfe ~f2d|ecA ABc|1 dz d ABc:|2 dz e dcB||

